X: 3
T: Fleur de Mandragore
C: Michel Bordeleau
R: Reel
L: 1/8
M: C|
K: A
"^A"|:\
"A"EGAE GABA | Aced cA2{A}A |\
"F#m/C#"EGAE GABB- | BABd cA2{A}A ||\
"D"EGAE GABA | Aced cA2{A}A |
"E"EGAE GABB- |[1 BABd cAA2 :|[2 BABc Aceg "^B"|:\
"A"a4 a2 ga | "Bm"bAaA (3gag ec |\
"D"dfed cABc | "E"defg agfe ||
"A"a4 a2 ga | "Bm"bAaA (3gag ec |\
"D"dfed "A"cABc |\
[1 "E"dcBc "A"Aceg :|[2 "E"dcBc "A"BA A2 |]\
["Final""E"dcBc "A"Aceg | "A"a4 a2z2 |]

